z_dist/img/icons/check-dark.svg

<svg width="16" height="16" viewBox="0 0 16 16" fill="none" xmlns="http://www.w3.org/2000/svg">
<path d="M5.72727 13.8039C5.84882 13.9258 6.01281 13.996 6.18492 13.9997C6.35702 14.0035 6.52389 13.9405 6.65061 13.8239L15.1173 6.04128C15.2474 5.92178 15.3248 5.75553 15.3324 5.57903C15.34 5.40253 15.2773 5.23022 15.1579 5.09994L12.5233 2.21661C12.4641 2.15189 12.3927 2.09948 12.3132 2.06239C12.2337 2.02531 12.1477 2.00427 12.06 2.0005C11.9724 1.99672 11.8849 2.01027 11.8025 2.04038C11.7201 2.07049 11.6445 2.11655 11.5799 2.17594L6.33661 6.99594L4.56261 5.21794C4.43509 5.09726 4.26618 5.03 4.09061 5.03C3.91503 5.03 3.74613 5.09726 3.61861 5.21794L0.861274 7.98261C0.7367 8.10757 0.666748 8.27683 0.666748 8.45328C0.666748 8.62973 0.7367 8.79898 0.861274 8.92394L5.72727 13.8039ZM4.09061 6.63261L5.84461 8.39061C5.96604 8.51241 6.12984 8.58256 6.30179 8.58641C6.47373 8.59026 6.64051 8.52751 6.76727 8.41128L11.9899 3.61128L13.7233 5.51061L6.21994 12.4093L2.27461 8.45328L4.09061 6.63261Z" fill="#3D96D2"/>
</svg>

<svg width="16" height="16" fill="none" xmlns="http://www.w3.org/2000/svg"><path d="M5.727 13.804a.667.667 0 00.924.02l8.466-7.783a.667.667 0 00.04-.941l-2.634-2.883a.667.667 0 00-.943-.041l-5.243 4.82-1.774-1.778a.687.687 0 00-.944 0L.86 7.983a.667.667 0 000 .94l4.866 4.88zM4.091 6.633L5.845 8.39a.667.667 0 00.922.02l5.223-4.8 1.733 1.9-7.503 6.898-3.945-3.956 1.816-1.82z" fill="#3D96D2"/></svg>
